src/collection/traits/Ear/Earrings.svg

<svg width="546" height="546" viewBox="0 0 546 546" fill="none" xmlns="http://www.w3.org/2000/svg">
<g clip-path="url(#clip0_72_2123)">
<mask id="mask0_72_2123" style="mask-type:luminance" maskUnits="userSpaceOnUse" x="0" y="0" width="546" height="546">
<path d="M545.1 0H0V545.1H545.1V0Z" fill="white"/>
</mask>
<g mask="url(#mask0_72_2123)">
<path d="M128 359.293C127.619 360.592 127.048 361.79 126.287 362.889C116.389 378.374 80.3204 372.88 73.9441 336.015C70.7084 316.933 76.133 305.245 84.9837 301.948C94.5006 298.451 107.824 304.545 118.293 321.629" fill="#FFC68E"/>
<path d="M130.4 359.6C130 360.9 129.4 362.1 128.6 363.2C120.3 375.6 98.9999 373.9 84.0999 357.8C75.3999 341.3 71.4999 306 96.6999 302.7C105.7 303.1 111.5 308.3 120.3 322L130.4 359.6Z" fill="#D18154"/>
<path d="M105.7 327.3C106 327.6 97.6999 313.4 92.8999 317.9C88.0999 322.4 92.8999 324.2 92.8999 324.2C92.8999 324.2 95.9999 318.5 105.7 327.3Z" fill="#FFC68E"/>
<path d="M87.8999 315.3C96.5999 312.8 103.3 320.6 106.3 325.9" stroke="black" stroke-width="5" stroke-linecap="round" stroke-linejoin="round"/>
<path d="M94.3999 315.3C94.3999 315.3 85.3999 336.3 102.3 349.4" stroke="black" stroke-width="5" stroke-linecap="round" stroke-linejoin="round"/>
<path d="M130.4 359.6C123.8 379.3 80.8 375.8 73.6 336.4C66.4 297 99 288.9 120.3 322" stroke="black" stroke-width="5" stroke-linecap="round" stroke-linejoin="round"/>
<path d="M83.6001 324.5L82.9001 327.6C82.7001 328.3 82.2001 328.9 81.7001 329.2C81.3001 329.4 80.8001 329.5 80.4001 329.4L67.5001 327.1C64.2001 326.5 61.7001 324.1 62.5001 321.7L64.6001 315.8C64.7001 315.6 64.8001 315.4 64.9001 315.2C66.0001 313.6 68.8001 313.6 71.3001 315L82.4001 321.4C83.3001 322 83.9001 323.3 83.6001 324.5Z" fill="#DA7C00" stroke="black" stroke-width="5" stroke-miterlimit="10"/>
<path d="M83.6 324.5L82.9 327.6C82.7 328.3 82.2 328.9 81.7 329.2C73.5 325.5 68.8 320.8 64.8 315.2C65.9 313.6 68.7 313.6 71.2 315L82.3 321.4C83.3 322 83.9 323.3 83.6 324.5Z" fill="#F7CA0F"/>
<path d="M83.6001 324.5L82.9001 327.6C82.7001 328.3 82.2001 328.9 81.7001 329.2C81.3001 329.4 80.8001 329.5 80.4001 329.4L67.5001 327.1C64.2001 326.5 61.7001 324.1 62.5001 321.7L64.6001 315.8C64.7001 315.6 64.8001 315.4 64.9001 315.2C66.0001 313.6 68.8001 313.6 71.3001 315L82.4001 321.4C83.3001 322 83.9001 323.3 83.6001 324.5Z" stroke="black" stroke-width="5" stroke-miterlimit="10"/>
<path d="M85.2001 342.1L82.1001 343.6L73.4001 348C70.4001 349.5 67.0001 349 66.2001 346.7L64.3001 340.7C63.8001 339.1 65.0001 337.5 67.0001 336.6C67.7001 336.3 68.4001 336.1 69.2001 336L81.9001 334.4C83.1001 334.3 84.3001 335 84.8001 336.1L86.1001 339C86.7001 340.2 86.3001 341.5 85.2001 342.1Z" fill="#DA7C00" stroke="black" stroke-width="5" stroke-miterlimit="10"/>
<path d="M85.2 342.1L82.1 343.6C77.7 342.2 72.7 339.8 67 336.6C67.7 336.3 68.4 336.1 69.2 336L81.9 334.4C83.1 334.3 84.3 335 84.8 336.1L86.1 339C86.7 340.2 86.3 341.5 85.2 342.1Z" fill="#F7CA0F"/>
<path d="M85.2002 342.1L73.5002 348.1C70.5002 349.6 67.1002 349.1 66.3002 346.8L64.4002 340.8C63.7002 338.6 66.1002 336.5 69.3002 336.1L82.0002 334.5C83.2002 334.4 84.4002 335.1 84.9002 336.2L86.2002 339.1C86.7002 340.2 86.3002 341.5 85.2002 342.1Z" stroke="black" stroke-width="5" stroke-miterlimit="10"/>
</g>
</g>
<defs>
<clipPath id="clip0_72_2123">
<rect width="545.1" height="545.1" fill="white"/>
</clipPath>
</defs>
</svg>

<?xml version="1.0" encoding="utf-8"?>
<!-- Generator: Adobe Illustrator 27.7.0, SVG Export Plug-In . SVG Version: 6.00 Build 0)  -->
<svg version="1.1" id="Layer_1" xmlns="http://www.w3.org/2000/svg" xmlns:xlink="http://www.w3.org/1999/xlink" x="0px" y="0px"
	 viewBox="0 0 545.1 545.1" style="enable-background:new 0 0 545.1 545.1;" xml:space="preserve">
<style type="text/css">
	.st0{clip-path:url(#SVGID_00000057128513093671722160000003142359165474138294_);}
	.st1{fill:#FFC68E;stroke:#000000;stroke-width:5;stroke-linecap:round;stroke-linejoin:round;}
	.st2{fill:#D18154;}
	.st3{fill:#FFC68E;}
	.st4{fill:none;stroke:#000000;stroke-width:5;stroke-linecap:round;stroke-linejoin:round;}
	.st5{fill:#DA7C00;stroke:#000000;stroke-width:5;stroke-miterlimit:10;}
	.st6{fill:#F7CA0F;}
	.st7{fill:none;stroke:#000000;stroke-width:5;stroke-miterlimit:10;}
</style>
<g>
	<g id="Layer_2_00000003798151397358836020000007015582389088390303_">
		<g id="Layer_1-2">
			<g>
				<defs>
					<rect id="SVGID_1_" y="0" width="545.1" height="545.1"/>
				</defs>
				<clipPath id="SVGID_00000060738913524473801070000005916273408486746016_">
					<use xlink:href="#SVGID_1_"  style="overflow:visible;"/>
				</clipPath>
				<g style="clip-path:url(#SVGID_00000060738913524473801070000005916273408486746016_);">
					<g>
						<g>
							<path class="st1" d="M130.4,359.6c-0.4,1.3-1,2.5-1.8,3.6c-10.4,15.5-48.3,10-55-26.9c-3.4-19.1,2.3-30.8,11.6-34.1h0
								c10-3.5,24,2.6,35,19.7"/>
							<path class="st2" d="M130.4,359.6c-0.4,1.3-1,2.5-1.8,3.6c-8.3,12.4-29.6,10.7-44.5-5.4c-8.7-16.5-12.6-51.8,12.6-55.1
								c9,0.4,14.8,5.6,23.6,19.3L130.4,359.6L130.4,359.6z"/>
							<path class="st3" d="M105.7,327.3c0.3,0.3-8-13.9-12.8-9.4c-4.8,4.5,0,6.3,0,6.3S96,318.5,105.7,327.3L105.7,327.3z"/>
							<path class="st4" d="M87.9,315.3c8.7-2.5,15.4,5.3,18.4,10.6"/>
							<path class="st4" d="M94.4,315.3c0,0-9,21,7.9,34.1"/>
							<path class="st4" d="M130.4,359.6c-6.6,19.7-49.6,16.2-56.8-23.2S99,288.9,120.3,322"/>
						</g>
						<g>
							<path class="st5" d="M83.6,324.5l-0.7,3.1c-0.2,0.7-0.7,1.3-1.2,1.6c-0.4,0.2-0.9,0.3-1.3,0.2l-12.9-2.3
								c-3.3-0.6-5.8-3-5-5.4l2.1-5.9c0.1-0.2,0.2-0.4,0.3-0.6c1.1-1.6,3.9-1.6,6.4-0.2l11.1,6.4C83.3,322,83.9,323.3,83.6,324.5z"
								/>
							<path class="st6" d="M83.6,324.5l-0.7,3.1c-0.2,0.7-0.7,1.3-1.2,1.6c-8.2-3.7-12.9-8.4-16.9-14c1.1-1.6,3.9-1.6,6.4-0.2
								l11.1,6.4C83.3,322,83.9,323.3,83.6,324.5z"/>
							<path class="st7" d="M83.6,324.5l-0.7,3.1c-0.2,0.7-0.7,1.3-1.2,1.6c-0.4,0.2-0.9,0.3-1.3,0.2l-12.9-2.3
								c-3.3-0.6-5.8-3-5-5.4l2.1-5.9c0.1-0.2,0.2-0.4,0.3-0.6c1.1-1.6,3.9-1.6,6.4-0.2l11.1,6.4C83.3,322,83.9,323.3,83.6,324.5z"
								/>
						</g>
						<g>
							<path class="st5" d="M85.2,342.1l-3.1,1.5l-8.7,4.4c-3,1.5-6.4,1-7.2-1.3l-1.9-6c-0.5-1.6,0.7-3.2,2.7-4.1
								c0.7-0.3,1.4-0.5,2.2-0.6l12.7-1.6c1.2-0.1,2.4,0.6,2.9,1.7l1.3,2.9C86.7,340.2,86.3,341.5,85.2,342.1L85.2,342.1z"/>
							<path class="st6" d="M85.2,342.1l-3.1,1.5c-4.4-1.4-9.4-3.8-15.1-7c0.7-0.3,1.4-0.5,2.2-0.6l12.7-1.6
								c1.2-0.1,2.4,0.6,2.9,1.7l1.3,2.9C86.7,340.2,86.3,341.5,85.2,342.1L85.2,342.1z"/>
							<path class="st7" d="M85.2,342.1l-11.7,6c-3,1.5-6.4,1-7.2-1.3l-1.9-6c-0.7-2.2,1.7-4.3,4.9-4.7l12.7-1.6
								c1.2-0.1,2.4,0.6,2.9,1.7l1.3,2.9C86.7,340.2,86.3,341.5,85.2,342.1L85.2,342.1z"/>
						</g>
					</g>
				</g>
			</g>
		</g>
	</g>
</g>
</svg>
